Catalina-dark/actions/22/player-volume-muted.svg

<svg xmlns="http://www.w3.org/2000/svg" viewBox="0 0 22 22">
  <defs id="defs3051">
    <style type="text/css" id="current-color-scheme">
      .ColorScheme-Text {
        color:#f2f2f2
      }
      </style>
  </defs>
 <path 
     style="fill:currentColor;fill-opacity:1;stroke:none"      
	 class="ColorScheme-Text"
        d="M 11.203125 3 C 10.975091 3 10.777993 3.0834965 10.611328 3.25 L 6.2304688 7.6308594 L 2.7832031 7.6308594 C 2.5550078 7.6308594 2.3561181 7.7143559 2.1894531 7.8808594 C 2.0227881 8.0475244 1.9394531 8.2465755 1.9394531 8.4746094 L 1.9394531 13.525391 C 1.9394531 13.753424 2.0227881 13.952637 2.1894531 14.119141 C 2.3562796 14.285806 2.5551693 14.369141 2.7832031 14.369141 L 6.2285156 14.369141 L 10.611328 18.75 C 10.777993 18.916503 10.975091 19 11.203125 19 C 11.43132 19 11.628257 18.916503 11.794922 18.75 C 11.961587 18.583497 12.044922 18.386237 12.044922 18.158203 L 12.044922 3.8417969 C 12.044922 3.613763 11.961425 3.416665 11.794922 3.25 C 11.628095 3.0834965 11.43132 3 11.203125 3 z M 14.285156 7.7558594 C 14.124144 7.7558594 13.987753 7.8130279 13.875 7.9257812 L 13.054688 8.7460938 C 12.942008 8.8587729 12.884766 8.9951632 12.884766 9.15625 C 12.884766 9.3173368 12.941934 9.4556061 13.054688 9.5683594 L 14.830078 11.34375 L 13.054688 13.119141 C 12.942008 13.231894 12.884766 13.36821 12.884766 13.529297 C 12.884766 13.690384 12.941934 13.828653 13.054688 13.941406 L 13.875 14.761719 C 13.987753 14.874472 14.124144 14.931641 14.285156 14.931641 C 14.446243 14.931641 14.584512 14.874398 14.697266 14.761719 L 16.472656 12.986328 L 18.248047 14.761719 C 18.3608 14.874472 18.496968 14.931641 18.658203 14.931641 C 18.819216 14.931641 18.957633 14.874398 19.070312 14.761719 L 19.890625 13.941406 C 20.003378 13.828727 20.060547 13.690384 20.060547 13.529297 C 20.060547 13.36821 20.003378 13.231894 19.890625 13.119141 L 18.115234 11.34375 L 19.890625 9.5683594 C 20.003378 9.4556802 20.060547 9.3173368 20.060547 9.15625 C 20.060547 8.9951632 20.003304 8.8588471 19.890625 8.7460938 L 19.070312 7.9257812 C 18.957559 7.8130279 18.819216 7.7558594 18.658203 7.7558594 C 18.497042 7.7558594 18.3608 7.8130279 18.248047 7.9257812 L 16.472656 9.7011719 L 14.697266 7.9257812 C 14.584586 7.8130279 14.446243 7.7558594 14.285156 7.7558594 z "
     />
</svg>

<svg viewBox="0 0 22 22" xmlns="http://www.w3.org/2000/svg">
<defs>
<style id="current-color-scheme" type="text/css">.ColorScheme-Text {
        color:#dedede
      }</style>
</defs>
<path class="ColorScheme-Text" d="m11.203 3c-0.22803 0-0.42513 0.083496-0.5918 0.25l-4.3809 4.3809h-3.4473c-0.2282 0-0.42708 0.083496-0.59375 0.25-0.16666 0.16666-0.25 0.36572-0.25 0.59375v5.0508c0 0.22803 0.083335 0.42725 0.25 0.59375 0.16683 0.16666 0.36572 0.25 0.59375 0.25h3.4453l4.3828 4.3809c0.16666 0.1665 0.36376 0.25 0.5918 0.25 0.2282 0 0.42513-0.083497 0.5918-0.25s0.25-0.36376 0.25-0.5918v-14.316c0-0.22803-0.083497-0.42513-0.25-0.5918-0.16683-0.1665-0.3636-0.25-0.5918-0.25zm3.082 4.7559c-0.16101 0-0.2974 0.057168-0.41016 0.16992l-0.82031 0.82031c-0.11268 0.11268-0.16992 0.24907-0.16992 0.41016s0.057168 0.29936 0.16992 0.41211l1.7754 1.7754-1.7754 1.7754c-0.11268 0.11275-0.16992 0.24907-0.16992 0.41016s0.057168 0.29936 0.16992 0.41211l0.82031 0.82031c0.11275 0.11275 0.24914 0.16992 0.41016 0.16992 0.16109 0 0.29936-0.057243 0.41211-0.16992l1.7754-1.7754 1.7754 1.7754c0.11275 0.11275 0.24892 0.16992 0.41016 0.16992 0.16101 0 0.29943-0.057243 0.41211-0.16992l0.82031-0.82031c0.11275-0.11268 0.16992-0.25102 0.16992-0.41211s-0.057169-0.2974-0.16992-0.41016l-1.7754-1.7754 1.7754-1.7754c0.11275-0.11268 0.16992-0.25102 0.16992-0.41211s-0.057243-0.2974-0.16992-0.41016l-0.82031-0.82031c-0.11275-0.11275-0.2511-0.16992-0.41211-0.16992-0.16116 0-0.2974 0.057168-0.41016 0.16992l-1.7754 1.7754-1.7754-1.7754c-0.11268-0.11275-0.25102-0.16992-0.41211-0.16992z" fill="currentColor"/>
</svg>
